X:516
%%topmargin 3cm
T:The Gordons
C:
O:Scotland
B:Keith Norman MacDonald : "The Skye collection of the best reels & strathspeys extant" : 1887
Z:Ralph Palmer
R:Strathspey
M:C
L:1/8
K:Am
A2 B<d e2 dB cBAG | E2 G>A GEDE |
D>EG>A B2 g>^f | e>dg>^f e>dB<d | e>^fg>f e<dcd B<A A ||
B | A<aa^f | e>de<g a>ee>^f | g>ab>a g/a/g/^f/ g<e | d>edc BGGB |
A<aa>b a2 g^f | e>dB>d e>^fg>a | b<ga<e g<ed>B | A<ae>d B>A A2 |]
